!!!SOCIAL_FUNCTION:	children's dances
!!!PDT:	1956
!!!OTL: No_202_Little_Boys'_Dance.krn
!!!LANG: Non-Tone
!!!LING_GROUP: Muskogean
!!!REG: Florida
**kern
*staff1
=1-
*clefF4
*k[f#]
*M2/4
4.r
16D\LL
16D\JJ
=2!|:
4..B\
16G\
=3
16G\LK
8.D\J
16E\LK
8.D\J
=4
8.E\L
16D\Jk
8.G\L
16B\Jk
=5
4..A\
16E\
=6||
*M3/4
16G\LL
16G\J
8E\J
4..G\
16E\
=7||
*M2/4
16G\LK
8.E\J
12G\L
12E\
12G\J
=8
4.G\
8E\
=9
16G\LK
8.E\J
12G\L
12E\
12G\J
=10:|!
16G\LK
8.E\J
4r
==
*-
